X:323
T:Salamanca
Z: id:dc-reel-301
M:C
L:1/8
K:D Major
dB|ADFD ADFD|Adcd fdcd|BEGE BEGE|Bded cdeg|!
fBdB fBdB|faec dfag|fdec dBAG|FGEF D2:|!
fg|afdg bgeg|fdec dcBc|Addc defg|a2^gb a2f=g|!
agfa gfeg|fdec dfag|fdec dBAG|FGEF D2:|!

